chrome/icons/camera.svg

<svg height="16" viewBox="0 0 1024 960" width="16" xmlns="http://www.w3.org/2000/svg" xmlns:xlink="http://www.w3.org/1999/xlink">
  <path d="M125.5,960C108.833,960 92.9167,956.583 77.75,949.75C62.5833,942.917 49.25,933.75 37.75,922.25C26.25,910.75 17.0833,897.417 10.25,882.25C3.41667,867.083 0,851.167 0,834.5L0,253.5C0,236.167 3.5,219.917 10.5,204.75C17.5,189.583 26.8333,176.333 38.5,165C50.1667,153.667 63.75,144.667 79.25,138C94.75,131.333 111,128 128,128L268,128L305.5,53C309.5,45 314.583,37.75 320.75,31.25C326.917,24.75 333.75,19.1667 341.25,14.5C348.75,9.83337 356.75,6.25 365.25,3.75C373.75,1.25 382.5,0 391.5,0L632.5,0C641.5,0 650.25,1.25 658.75,3.75C667.25,6.25 675.25,9.83337 682.75,14.5C690.25,19.1667 697.083,24.75 703.25,31.25C709.417,37.75 714.5,45 718.5,53L756,128L898.5,128C915.167,128 931.083,131.417 946.25,138.25C961.417,145.083 974.75,154.25 986.25,165.75C997.75,177.25 1006.92,190.583 1013.75,205.75C1020.58,220.917 1024,236.833 1024,253.5L1024,834.5C1024,851.167 1020.58,867.083 1013.75,882.25C1006.92,897.417 997.75,910.75 986.25,922.25C974.75,933.75 961.417,942.917 946.25,949.75C931.083,956.583 915.167,960 898.5,960ZM896,896C905,896 913.333,894.333 921,891C928.667,887.667 935.417,883.083 941.25,877.25C947.083,871.417 951.667,864.667 955,857C958.333,849.333 960,841 960,832L960,256C960,247.333 958.333,239.083 955,231.25C951.667,223.417 947.083,216.583 941.25,210.75C935.417,204.917 928.583,200.333 920.75,197C912.917,193.667 904.667,192 896,192L736,192C730,192 724.417,190.417 719.25,187.25C714.083,184.083 710.167,179.833 707.5,174.5L661,81.5C658.333,76.1667 654.417,71.9167 649.25,68.75C644.083,65.5834 638.5,64.0001 632.5,64L391.5,64C385.5,64.0001 379.917,65.5834 374.75,68.75C369.583,71.9167 365.667,76.1667 363,81.5L316.5,174.5C313.833,179.833 309.917,184.083 304.75,187.25C299.583,190.417 294,192 288,192L128,192C119,192 110.667,193.667 103,197C95.3333,200.333 88.5833,204.917 82.75,210.75C76.9167,216.583 72.3333,223.333 69,231C65.6667,238.667 64,247 64,256L64,832C64,841 65.6667,849.417 69,857.25C72.3333,865.083 76.8333,871.833 82.5,877.5C88.1667,883.167 94.9167,887.667 102.75,891C110.583,894.333 119,896 128,896ZM256,507C256,473.333 262.75,441.333 276.25,411C289.75,380.667 308,354 331,331C354,308 380.667,289.75 411,276.25C441.333,262.75 473.333,256 507,256C544,256 578.417,262.667 610.25,276C642.083,289.333 669.667,307.667 693,331C716.333,354.333 734.667,381.917 748,413.75C761.333,445.583 768,480 768,517C768,551.667 761.083,584.25 747.25,614.75C733.417,645.25 714.833,671.833 691.5,694.5C668.167,717.167 641,735.083 610,748.25C579,761.417 546.333,768 512,768C475.667,768 441.917,761.167 410.75,747.5C379.583,733.833 352.5,715.167 329.5,691.5C306.5,667.833 288.5,640.167 275.5,608.5C262.5,576.833 256,543 256,507ZM704,508C704,482 698.833,457.583 688.5,434.75C678.167,411.917 664.25,392 646.75,375C629.25,358 608.833,344.583 585.5,334.75C562.167,324.917 537.667,320 512,320C485.333,320 460.333,325 437,335C413.667,345 393.333,358.667 376,376C358.667,393.333 345,413.667 335,437C325,460.333 320,485.333 320,512C320,538.667 325,563.667 335,587C345,610.333 358.667,630.667 376,648C393.333,665.333 413.667,679 437,689C460.333,699 485.333,704 512,704C539.333,704 564.75,698.917 588.25,688.75C611.75,678.583 632.083,664.583 649.25,646.75C666.417,628.917 679.833,608.083 689.5,584.25C699.167,560.417 704,535 704,508Z" fill="context-fill" fill-opacity="context-fill-opacity">
  </path>
</svg>

<svg xmlns="http://www.w3.org/2000/svg" width="16" height="16" viewBox="0 0 1024 960"><path fill="context-fill" fill-opacity="context-fill-opacity" d="M125.5 960q-25 0-47.75-10.25t-40-27.5-27.5-40T0 834.5v-581q0-26 10.5-48.75t28-39.75 40.75-27T128 128h140l37.5-75q6-12 15.25-21.75t20.5-16.75 24-10.75T391.5 0h241q13.5 0 26.25 3.75t24 10.75 20.5 16.75A89.7 89.7 0 0 1 718.5 53l37.5 75h142.5q25 0 47.75 10.25t40 27.5c11.5 11.5 20.67 24.833 27.5 40S1024 236.833 1024 253.5v581c0 16.667-3.42 32.583-10.25 47.75s-16 28.5-27.5 40q-17.25 17.25-40 27.5T898.5 960ZM896 896q13.5 0 25-5t20.25-13.75T955 857t5-25V256q0-13-5-24.75t-13.75-20.5-20.5-13.75-24.75-5H736q-9 0-16.75-4.75T707.5 174.5l-46.5-93q-4-8-11.75-12.75T632.5 64h-241q-9 0-16.75 4.75T363 81.5l-46.5 93q-4 8-11.75 12.75T288 192H128q-13.5 0-25 5t-20.25 13.75T69 231t-5 25v576q0 13.5 5 25.25t13.5 20.25 20.25 13.5 25.25 5ZM256 507q0-50.5 20.25-96T331 331t80-54.75T507 256q55.5 0 103.25 20T693 331t55 82.75T768 517q0 52-20.75 97.75T691.5 694.5 610 748.25 512 768q-54.5 0-101.25-20.5t-81.25-56-54-83T256 507m448 1q0-39-15.5-73.25T646.75 375t-61.25-40.25T512 320q-40 0-75 15t-61 41-41 61-15 75 15 75 41 61 61 41 75 15q41 0 76.25-15.25t61-42 40.25-62.5T704 508"/></svg>
